modules/themify-icons/icons/hummer.svg

<?xml version="1.0" encoding="utf-8"?>
<!-- Generated by IcoMoon.io -->
<!DOCTYPE svg PUBLIC "-//W3C//DTD SVG 1.1//EN" "http://www.w3.org/Graphics/SVG/1.1/DTD/svg11.dtd">
<svg version="1.1" xmlns="http://www.w3.org/2000/svg" xmlns:xlink="http://www.w3.org/1999/xlink" width="17" height="17" viewBox="0 0 17 17">
<g>
</g>
	<path d="M9 4h5.625l-3.609-4h-7.016v4h4v3.723h-1.125v9.277h3.25v-9.277h-1.125v-3.723zM5 1h5.571l1.805 2h-7.376v-2zM9.125 16h-1.25v-7.277h1.25v7.277z" fill="#000000" />
</svg>

<svg xmlns="http://www.w3.org/2000/svg" width="17" height="17" viewBox="0 0 17 17"><path d="M9 4h5.625l-3.609-4H4v4h4v3.723H6.875V17h3.25V7.723H9V4zM5 1h5.571l1.805 2H5V1zm4.125 15h-1.25V8.723h1.25V16z"/></svg>
